packages/foundations/assets/icons/functional/images/arrows/swap_horizontal.svg

<svg xmlns="http://www.w3.org/2000/svg" width="32" height="32" fill="none"><path fill="#282D37" fill-rule="evenodd" d="M7.573 5.098c-.244.105-5.3 5.143-5.448 5.43-.123.235-.144.56-.053.834.045.137.761.885 2.741 2.861 2.4 2.396 2.705 2.682 2.913 2.737a1 1 0 0 0 1.233-1.234c-.054-.205-.266-.439-1.802-1.979l-1.74-1.746 6.455-.014 6.456-.014.227-.15a1.002 1.002 0 0 0 .175-1.496c-.296-.317.076-.3-6.888-.3-3.521 0-6.402-.016-6.402-.035s.778-.805 1.728-1.747c1.613-1.598 1.733-1.729 1.796-1.973a1.09 1.09 0 0 0-.166-.888c-.231-.324-.818-.461-1.225-.286m16.294 9.926c-.289.054-.351.08-.51.214-.19.159-.368.501-.369.709-.003.431.043.488 1.855 2.305l1.74 1.746-6.456.014-6.455.015-.227.15c-.496.328-.582 1.064-.175 1.494.335.354-.198.328 6.883.343l6.42.015-1.735 1.719c-1.595 1.581-1.739 1.739-1.799 1.97-.217.838.573 1.519 1.376 1.187.225-.093 5.291-5.111 5.437-5.385.133-.251.167-.482.11-.758-.05-.246-.154-.358-2.7-2.912-1.457-1.462-2.709-2.688-2.782-2.726a1.23 1.23 0 0 0-.613-.1"/></svg>

<svg width="32" height="32" viewBox="0 0 32 32" fill="none" xmlns="http://www.w3.org/2000/svg"><path d="M7.573 5.098 C 7.329 5.203,2.273 10.241,2.125 10.528 C 2.002 10.763,1.981 11.088,2.072 11.362 C 2.117 11.499,2.833 12.247,4.813 14.223 C 7.213 16.619,7.518 16.905,7.726 16.960 C 8.488 17.160,9.160 16.488,8.959 15.726 C 8.905 15.521,8.693 15.287,7.157 13.747 L 5.417 12.001 11.872 11.987 L 18.328 11.973 18.555 11.823 C 19.051 11.495,19.137 10.762,18.730 10.327 C 18.434 10.010,18.806 10.027,11.842 10.027 C 8.321 10.027,5.440 10.011,5.440 9.992 C 5.440 9.973,6.218 9.187,7.168 8.245 C 8.781 6.647,8.901 6.516,8.964 6.272 C 9.041 5.973,8.979 5.638,8.798 5.384 C 8.567 5.060,7.980 4.923,7.573 5.098 M23.867 15.024 C 23.578 15.078,23.516 15.104,23.357 15.238 C 23.167 15.397,22.989 15.739,22.988 15.947 C 22.985 16.378,23.031 16.435,24.843 18.252 L 26.583 19.998 20.127 20.012 L 13.672 20.027 13.445 20.177 C 12.949 20.505,12.863 21.241,13.270 21.671 C 13.605 22.025,13.072 21.999,20.153 22.014 L 26.573 22.029 24.838 23.748 C 23.243 25.329,23.099 25.487,23.039 25.718 C 22.822 26.556,23.612 27.237,24.415 26.905 C 24.640 26.812,29.706 21.794,29.852 21.520 C 29.985 21.269,30.019 21.038,29.962 20.762 C 29.912 20.516,29.808 20.404,27.262 17.850 C 25.805 16.388,24.553 15.162,24.480 15.124 C 24.327 15.045,24.023 14.996,23.867 15.024 " fill="#282D37" stroke="none" fill-rule="evenodd"></path></svg>
